images/stopwatch.svg

<svg id="Layer_4" enable-background="new 0 0 24 24" height="512" viewBox="0 0 24 24" width="512" xmlns="http://www.w3.org/2000/svg"><path fill="#0b3b7d" d="m20.094 6.819 1.613-1.612c.391-.39.391-1.023 0-1.414s-1.023-.391-1.414 0l-1.613 1.612c-1.574-1.301-3.535-2.151-5.68-2.354v-1.051h2c.553 0 1-.448 1-1s-.447-1-1-1h-6c-.553 0-1 .448-1 1s.447 1 1 1h2v1.051c-5.322.505-9.5 4.997-9.5 10.449 0 5.79 4.71 10.5 10.5 10.5s10.5-4.71 10.5-10.5c0-2.536-.904-4.864-2.406-6.681zm-7.094 6.681c0 .553-.448 1-1 1s-1-.447-1-1v-5.5c0-.553.448-1 1-1s1 .447 1 1z"/></svg>

<svg height="512" viewBox="0 0 24 24" width="512" xmlns="http://www.w3.org/2000/svg"><path fill="#0b3b7d" d="M20.094 6.819l1.613-1.612a.999.999 0 10-1.414-1.414L18.68 5.405A10.45 10.45 0 0013 3.051V2h2a1 1 0 100-2H9a1 1 0 100 2h2v1.051C5.678 3.556 1.5 8.048 1.5 13.5 1.5 19.29 6.21 24 12 24s10.5-4.71 10.5-10.5c0-2.536-.904-4.864-2.406-6.681zM13 13.5a1 1 0 11-2 0V8a1 1 0 112 0z"/></svg>
